X:1639
T:Miss Monaghan's
O:ireland
R:Reel
M:4/4
K:D
D2 (3FED FAAd|B2BA FABc|d3B ABde|fede fee2|\
D2 (3FED FAAd|B2BA FABc|
d3B ABdB|AFEG|FD D2::\
fa a/a/a afdf|g2 (3fgf edBc|
d3B ABde|fede fee2|\
fa a/a/a afdf|g2 (3fgf edBc|d3B ABdB|AFEG FDD2:|
